assets/img/icons/intro/kino.svg

<svg width="80" height="80" viewBox="0 0 80 80" fill="none" xmlns="http://www.w3.org/2000/svg">
<path d="M12 54H6V16H74V54H69" stroke="#A89365" stroke-width="2" stroke-linecap="round" stroke-linejoin="round"/>
<path d="M22 48C22 46.3431 20.6569 45 19 45C17.3431 45 16 46.3431 16 48" stroke="#A89365" stroke-width="2" stroke-linecap="round" stroke-linejoin="round"/>
<path d="M12 51.0001C12 50.2044 12.3044 49.4413 12.8462 48.8787C13.3879 48.3161 14.1228 48 14.889 48H22.111C22.8772 48 23.6121 48.3161 24.1538 48.8787C24.6956 49.4413 25 50.2044 25 51.0001V66H12V51.0001Z" stroke="#A89365" stroke-width="2" stroke-linecap="round" stroke-linejoin="round"/>
<path d="M9 56.7141C9 56.5247 9.07901 56.3431 9.21964 56.2092C9.36028 56.0752 9.55102 56 9.74991 56H11.2501C11.449 56 11.6397 56.0752 11.7804 56.2092C11.921 56.3431 12 56.5247 12 56.7141V66H9V56.7141Z" stroke="#A89365" stroke-width="2" stroke-linecap="round" stroke-linejoin="round"/>
<path d="M25 56.7141C25 56.5247 25.079 56.3431 25.2196 56.2092C25.3603 56.0752 25.551 56 25.7499 56H27.2501C27.449 56 27.6397 56.0752 27.7804 56.2092C27.921 56.3431 28 56.5247 28 56.7141V66H25V56.7141Z" stroke="#A89365" stroke-width="2" stroke-linecap="round" stroke-linejoin="round"/>
<path d="M43 48C43 46.3431 41.6569 45 40 45C38.3431 45 37 46.3431 37 48" stroke="#A89365" stroke-width="2" stroke-linecap="round" stroke-linejoin="round"/>
<path d="M34 51.0001C34 50.2044 34.3044 49.4413 34.8462 48.8787C35.3879 48.3161 36.1228 48 36.889 48H44.111C44.8772 48 45.6121 48.3161 46.1538 48.8787C46.6956 49.4413 47 50.2044 47 51.0001V66H34V51.0001Z" stroke="#A89365" stroke-width="2" stroke-linecap="round" stroke-linejoin="round"/>
<path d="M31 56.7141C31 56.5247 31.079 56.3431 31.2196 56.2092C31.3603 56.0752 31.551 56 31.7499 56H33.2501C33.449 56 33.6397 56.0752 33.7804 56.2092C33.921 56.3431 34 56.5247 34 56.7141V66H31V56.7141Z" stroke="#A89365" stroke-width="2" stroke-linecap="round" stroke-linejoin="round"/>
<path d="M47 56.7141C47 56.5247 47.079 56.3431 47.2196 56.2092C47.3603 56.0752 47.551 56 47.7499 56H49.2501C49.449 56 49.6397 56.0752 49.7804 56.2092C49.921 56.3431 50 56.5247 50 56.7141V66H47V56.7141Z" stroke="#A89365" stroke-width="2" stroke-linecap="round" stroke-linejoin="round"/>
<path d="M65 48C65 46.3431 63.6569 45 62 45C60.3431 45 59 46.3431 59 48" stroke="#A89365" stroke-width="2" stroke-linecap="round" stroke-linejoin="round"/>
<path d="M56 51.0001C56 50.2044 56.3044 49.4413 56.8462 48.8787C57.3879 48.3161 58.1228 48 58.889 48H66.111C66.8772 48 67.6121 48.3161 68.1538 48.8787C68.6956 49.4413 69 50.2044 69 51.0001V66H56V51.0001Z" stroke="#A89365" stroke-width="2" stroke-linecap="round" stroke-linejoin="round"/>
<path d="M53 56.7141C53 56.5247 53.079 56.3431 53.2196 56.2092C53.3603 56.0752 53.551 56 53.7499 56H55.2501C55.449 56 55.6397 56.0752 55.7804 56.2092C55.921 56.3431 56 56.5247 56 56.7141V66H53V56.7141Z" stroke="#A89365" stroke-width="2" stroke-linecap="round" stroke-linejoin="round"/>
<path d="M69 56.7141C69 56.5247 69.079 56.3431 69.2196 56.2092C69.3603 56.0752 69.551 56 69.7499 56H71.2501C71.449 56 71.6397 56.0752 71.7804 56.2092C71.921 56.3431 72 56.5247 72 56.7141V66H69V56.7141Z" stroke="#A89365" stroke-width="2" stroke-linecap="round" stroke-linejoin="round"/>
<path d="M6 66L74 66" stroke="#A89365" stroke-width="2" stroke-linecap="round" stroke-linejoin="round"/>
<path d="M26 54H33" stroke="#A89365" stroke-width="2" stroke-linecap="round" stroke-linejoin="round"/>
<path d="M48 54H55" stroke="#A89365" stroke-width="2" stroke-linecap="round" stroke-linejoin="round"/>
</svg>

<svg width="80" height="80" fill="none" xmlns="http://www.w3.org/2000/svg"><path d="M12 54H6V16h68v38h-5m-47-6a3 3 0 10-6 0" stroke="#A89365" stroke-width="2" stroke-linecap="round" stroke-linejoin="round"/><path d="M12 51c0-.796.304-1.559.846-2.121A2.836 2.836 0 0114.89 48h7.222c.766 0 1.501.316 2.043.879A3.06 3.06 0 0125 51v15H12V51zm-3 5.714c0-.19.079-.37.22-.505A.77.77 0 019.75 56h1.5a.77.77 0 01.53.21c.141.133.22.315.22.504V66H9v-9.286z" stroke="#A89365" stroke-width="2" stroke-linecap="round" stroke-linejoin="round"/><path d="M25 56.714c0-.19.079-.37.22-.505a.77.77 0 01.53-.209h1.5a.77.77 0 01.53.21c.141.133.22.315.22.504V66h-3v-9.286zM43 48a3 3 0 10-6 0m-3 3c0-.796.304-1.559.846-2.121A2.836 2.836 0 0136.89 48h7.222c.766 0 1.501.316 2.043.879A3.06 3.06 0 0147 51v15H34V51zm-3 5.714c0-.19.079-.37.22-.505a.77.77 0 01.53-.209h1.5a.77.77 0 01.53.21c.141.133.22.315.22.504V66h-3v-9.286z" stroke="#A89365" stroke-width="2" stroke-linecap="round" stroke-linejoin="round"/><path d="M47 56.714c0-.19.079-.37.22-.505a.77.77 0 01.53-.209h1.5a.77.77 0 01.53.21c.141.133.22.315.22.504V66h-3v-9.286zM65 48a3 3 0 10-6 0m-3 3c0-.796.304-1.559.846-2.121A2.836 2.836 0 0158.89 48h7.222c.766 0 1.501.316 2.043.879A3.06 3.06 0 0169 51v15H56V51zm-3 5.714c0-.19.079-.37.22-.505a.77.77 0 01.53-.209h1.5a.77.77 0 01.53.21c.141.133.22.315.22.504V66h-3v-9.286z" stroke="#A89365" stroke-width="2" stroke-linecap="round" stroke-linejoin="round"/><path d="M69 56.714c0-.19.079-.37.22-.505a.77.77 0 01.53-.209h1.5a.77.77 0 01.53.21c.141.133.22.315.22.504V66h-3v-9.286zM6 66h68M26 54h7m15 0h7" stroke="#A89365" stroke-width="2" stroke-linecap="round" stroke-linejoin="round"/></svg>
